Target/Image/GitHub/Biome.svg

<svg xmlns="http://www.w3.org/2000/svg" width="345" height="299" fill="none" viewBox="0 0 345 299"><path fill="#60a5fa" d="M172.288 0 95.537 132.93c29.122-8.978 60.452-10.309 90.821-3.146l25.939 6.123-24.404 103.48-25.976-6.123c-19.954-4.707-40.754-.043-56.841 12.674a66.9 66.9 0 0 0-18.731 23.319l-24.01-11.616a93.6 93.6 0 0 1 26.172-32.616 93.49 93.49 0 0 1 79.549-17.712l12.165-51.574c-43.577-10.273-89.504-.043-124.61 27.744C20.505 211.268 0 253.625 0 298.393l344.58.01z"/></svg>

<svg width="345" height="299" viewBox="0 0 345 299" fill="none" xmlns="http://www.w3.org/2000/svg">
	<path
		d="M172.288 0L95.537 132.93C124.659 123.952 155.989 122.621 186.358 129.784L212.297 135.907L187.893 239.387L161.917 233.264C141.963 228.557 121.163 233.221 105.076 245.938C97.0293 252.303 90.69 260.293 86.345 269.257L62.335 257.641C68.4094 245.096 77.29 233.905 88.507 225.025C110.946 207.264 140.202 200.741 168.056 207.313L180.221 155.739C136.644 145.466 90.717 155.696 55.611 183.483C20.505 211.268 0 253.625 0 298.393L344.58 298.403L172.288 0Z"
		fill="#60A5FA" />
</svg>
